X:30
T:Lichtmann 30
C:W. Boyce
M:C
L:1/8
Q:"Allegro" 1/4=84
K:A
!f!AE (C/A,/)C/E/ AA A3/(B//c//)|BB B3/(c//d//) c/B/A A>c|e2 (c/A/)c/e/ d2 (B/E/)B/d/|cA (E/A/)c/e/ c2 B2|
!p!e2 (c/A/)c/e/ d2 (B/E/)B/d/|cA (E/A/)c/e/ c2B2|!f!AA/A/ Ac/A/ BB/B/ Bd/B/|cc/c/ ce/c/ dd/d/ df/d/|
ec/e/ dB/d/ (c/d/)e/f/ (e>d)|c(d/B/) (B>A) A2 (A/B/)c/d/|e(c//d//e/) d(B//c//d/) (c/d/)e/f/ (e/f/)e/d/|c/e/(d//c//B//A//) (B>A) HA4|]

